src/assets/images/navigation-back.svg

<svg width="17" height="44" viewBox="0 0 17 44" fill="none" xmlns="http://www.w3.org/2000/svg">
<path d="M1.33203 22.2441C1.33203 22.4303 1.36426 22.6022 1.42871 22.7598C1.50033 22.9173 1.60775 23.0677 1.75098 23.2109L10.1191 31.3965C10.3626 31.64 10.6562 31.7617 11 31.7617C11.2363 31.7617 11.4476 31.7044 11.6338 31.5898C11.8271 31.4824 11.9811 31.332 12.0957 31.1387C12.2103 30.9525 12.2676 30.7448 12.2676 30.5156C12.2676 30.1719 12.1351 29.8675 11.8701 29.6025L4.3291 22.2441L11.8701 14.8857C12.1351 14.6208 12.2676 14.32 12.2676 13.9834C12.2676 13.7471 12.2103 13.5358 12.0957 13.3496C11.9811 13.1634 11.8271 13.0166 11.6338 12.9092C11.4476 12.7946 11.2363 12.7373 11 12.7373C10.6562 12.7373 10.3626 12.8555 10.1191 13.0918L1.75098 21.2773C1.60775 21.4206 1.50033 21.571 1.42871 21.7285C1.36426 21.8861 1.33203 22.0579 1.33203 22.2441Z" fill="#0088FF"/>
</svg>

<svg xmlns="http://www.w3.org/2000/svg" width="17" height="44" fill="none"><path fill="#fff" d="M1.332 22.244c0 .186.032.358.097.516.071.157.179.308.322.45l8.368 8.186a1.2 1.2 0 0 0 .881.366c.236 0 .448-.058.634-.172.193-.108.347-.258.462-.451.114-.186.172-.394.172-.623 0-.344-.133-.648-.398-.913l-7.54-7.359 7.54-7.358c.265-.265.398-.566.398-.903 0-.236-.058-.447-.172-.633a1.24 1.24 0 0 0-.462-.44 1.185 1.185 0 0 0-.634-.173 1.22 1.22 0 0 0-.88.355L1.75 21.277a1.55 1.55 0 0 0-.322.451c-.065.158-.097.33-.097.516Z"/></svg>
